images/link/External-link.svg

<svg xmlns="http://www.w3.org/2000/svg" width="360" height="122" viewBox="0 0 360 122">
  <g fill="#0060DF" fill-rule="evenodd">
    <path d="M157.217285,62.9130859 L157.217285,61.6240234 L152.932617,61.6240234 L152.932617,62.78125 L155.90625,62.78125 L155.90625,63.0375977 C155.90625,64.824707 154.624512,66.0332031 152.734863,66.0332031 C150.61084,66.0332031 149.29248,64.3779297 149.29248,61.7119141 C149.29248,59.0825195 150.632812,57.3979492 152.727539,57.3979492 C154.294922,57.3979492 155.356934,58.1523438 155.811035,59.5805664 L157.151367,59.5805664 C156.770508,57.4858398 155.071289,56.1821289 152.727539,56.1821289 C149.834473,56.1821289 147.9375,58.3720703 147.9375,61.7119141 C147.9375,65.0957031 149.805176,67.2490234 152.727539,67.2490234 C155.430176,67.2490234 157.217285,65.5205078 157.217285,62.9130859 Z M159.414551,67 L160.674316,67 L160.674316,59.1044922 L159.414551,59.1044922 L159.414551,67 Z M160.044434,57.5004883 C160.527832,57.5004883 160.92334,57.1049805 160.92334,56.621582 C160.92334,56.1381836 160.527832,55.7426758 160.044434,55.7426758 C159.561035,55.7426758 159.165527,56.1381836 159.165527,56.621582 C159.165527,57.1049805 159.561035,57.5004883 160.044434,57.5004883 Z M163.604004,57.0610352 L163.604004,59.1044922 L162.32959,59.1044922 L162.32959,60.1591797 L163.604004,60.1591797 L163.604004,64.9492188 C163.604004,66.4580078 164.255859,67.0585938 165.881836,67.0585938 C166.130859,67.0585938 166.372559,67.0292969 166.621582,66.9853516 L166.621582,65.9233398 C166.387207,65.9453125 166.262695,65.9526367 166.035645,65.9526367 C165.215332,65.9526367 164.86377,65.5571289 164.86377,64.6269531 L164.86377,60.1591797 L166.621582,60.1591797 L166.621582,59.1044922 L164.86377,59.1044922 L164.86377,57.0610352 L163.604004,57.0610352 Z M168.599121,67 L169.858887,67 L169.858887,62.3271484 C169.858887,60.9941406 170.635254,60.1005859 172.048828,60.1005859 C173.242676,60.1005859 173.872559,60.7963867 173.872559,62.1953125 L173.872559,67 L175.132324,67 L175.132324,61.8876953 C175.132324,60.034668 174.077637,58.965332 172.407715,58.965332 C171.199219,58.965332 170.371582,59.4780273 169.976074,60.3496094 L169.858887,60.3496094 L169.858887,55.9697266 L168.599121,55.9697266 L168.599121,67 Z M183.818848,59.1044922 L182.559082,59.1044922 L182.559082,63.7773438 C182.559082,65.1616211 181.797363,65.9892578 180.405762,65.9892578 C179.145996,65.9892578 178.618652,65.3300781 178.618652,63.9091797 L178.618652,59.1044922 L177.358887,59.1044922 L177.358887,64.2167969 C177.358887,66.0844727 178.281738,67.1391602 180.054199,67.1391602 C181.262695,67.1391602 182.10498,66.6411133 182.500488,65.762207 L182.617676,65.762207 L182.617676,67 L183.818848,67 L183.818848,59.1044922 Z M190.117676,67.1391602 C189.019043,67.1391602 188.081543,66.6191406 187.583496,65.7402344 L187.466309,65.7402344 L187.466309,67 L186.265137,67 L186.265137,55.9697266 L187.524902,55.9697266 L187.524902,60.3496094 L187.64209,60.3496094 C188.074219,59.5 189.033691,58.965332 190.117676,58.965332 C192.124512,58.965332 193.428223,60.5693359 193.428223,63.0522461 C193.428223,65.5205078 192.117188,67.1391602 190.117676,67.1391602 Z M189.824707,60.1005859 C188.38916,60.1005859 187.495605,61.2285156 187.495605,63.0522461 C187.495605,64.8759766 188.38916,66.0039062 189.824707,66.0039062 C191.267578,66.0039062 192.124512,64.8979492 192.124512,63.0522461 C192.124512,61.206543 191.267578,60.1005859 189.824707,60.1005859 Z"/>
    <g fill-rule="nonzero" transform="translate(200 54)">
      <path d="M13.9231352,0.616914847 C13.7689608,0.243924095 13.4053543,0.000469224868 13.0017559,0 L8.01053546,0 C7.45922048,0 7.01229137,0.446929102 7.01229137,0.99824409 C7.01229137,1.54955908 7.45922048,1.99648818 8.01053546,1.99648818 L10.5919947,1.99648818 L7.30477689,5.28370597 C7.04527677,5.53433957 6.94120382,5.90549014 7.03255857,6.25450565 C7.12391331,6.60352117 7.39647883,6.87608669 7.74549435,6.96744143 C8.09450986,7.05879618 8.46566043,6.95472323 8.71629403,6.69522311 L12.0035118,3.40800532 L12.0035118,5.98946454 C12.0035118,6.54077952 12.4504409,6.98770863 13.0017559,6.98770863 C13.5530709,6.98770863 14,6.54077952 14,5.98946454 L14,0.99824409 C13.9996322,0.86732372 13.9735148,0.737754309 13.9231352,0.616914847 L13.9231352,0.616914847 Z"/>
      <path d="M13,9 C12.4477153,9 12,9.44771525 12,10 L12,12 L2,12 L2,2 L4,2 C4.55228475,2 5,1.55228475 5,1 C5,0.44771525 4.55228475,0 4,0 L1,0 C0.44771525,0 0,0.44771525 0,1 L0,13 C0,13.5522847 0.44771525,14 1,14 L13,14 C13.5522847,14 14,13.5522847 14,13 L14,10 C14,9.44771525 13.5522847,9 13,9 Z"/>
    </g>
  </g>
</svg>

<svg xmlns="http://www.w3.org/2000/svg" style="background:#f9f9fa" viewBox="0 0 360 122"><g fill="none" fill-rule="evenodd"><path fill="#0060DF" d="M157.22 62.91v-1.29h-4.29v1.16h2.98v.26c0 1.78-1.29 3-3.18 3-2.12 0-3.44-1.66-3.44-4.33 0-2.63 1.34-4.31 3.44-4.31 1.56 0 2.63.75 3.08 2.18h1.34c-.38-2.1-2.08-3.4-4.42-3.4-2.9 0-4.8 2.2-4.8 5.53 0 3.39 1.88 5.54 4.8 5.54 2.7 0 4.49-1.73 4.49-4.34zm2.2 4.09h1.25v-7.9h-1.26V67zm.62-9.5a.88.88 0 0 0 0-1.76.88.88 0 0 0 0 1.76zm3.56-.44v2.04h-1.27v1.06h1.27v4.79c0 1.5.66 2.1 2.28 2.1.25 0 .5-.02.74-.06v-1.07c-.23.03-.36.03-.58.03-.82 0-1.18-.4-1.18-1.32v-4.47h1.76V59.1h-1.76v-2.04h-1.26zm5 9.94h1.26v-4.67c0-1.34.78-2.23 2.19-2.23 1.2 0 1.82.7 1.82 2.1V67h1.26v-5.11c0-1.86-1.05-2.92-2.72-2.92-1.21 0-2.04.5-2.43 1.38h-.12v-4.38h-1.26V67zm15.22-7.9h-1.26v4.68c0 1.38-.76 2.2-2.15 2.2-1.26 0-1.8-.65-1.8-2.07v-4.8h-1.25v5.1c0 1.87.92 2.93 2.7 2.93 1.2 0 2.04-.5 2.44-1.38h.12V67h1.2v-7.9zm6.3 8.04c-1.1 0-2.04-.52-2.54-1.4h-.11V67h-1.2V55.97h1.25v4.38h.12a2.73 2.73 0 0 1 2.48-1.38c2 0 3.3 1.6 3.3 4.08 0 2.47-1.3 4.09-3.3 4.09zm-.3-7.04c-1.43 0-2.32 1.13-2.32 2.95 0 1.83.89 2.95 2.32 2.95 1.45 0 2.3-1.1 2.3-2.95 0-1.84-.85-2.95-2.3-2.95z"/><g transform="translate(200 54)"><path fill="#0060DF" fill-rule="nonzero" d="M4 0H3a3 3 0 0 0-3 3v8a3 3 0 0 0 3 3h8a3 3 0 0 0 3-3v-1a1 1 0 0 0-2 0v1a1 1 0 0 1-1 1H3a1 1 0 0 1-1-1V3a1 1 0 0 1 1-1h1a1 1 0 1 0 0-2z"/><path fill="#0060DF" fill-rule="nonzero" d="M13.01 0h-5a1 1 0 1 0 0 2h2.59L7.3 5.3a1 1 0 1 0 1.42 1.4l3.3-3.29V6a1 1 0 1 0 2 0V1a1 1 0 0 0-1-1z"/></g></g></svg>
